X:1
T:Si chiara e pelegrina
T:Lodovico Agostini
T:Si chiara e pelegrina
C:Lodovico Agostini
%%score [ 1 2 3 4 ]
L:1/8
Q:1/4=90
M:4/4
K:F
V:1 alto1 nm="Soprano" snm="S"
V:2 alto nm="Alto" snm="A"
V:3 tenor nm="Tenor" snm="T"
V:4 bass nm="Bass" snm="B"
V:1
 z8 |[K:G][K:treble] G8 | d6 d2 | d4 B4 | A8 | G4 B4- | B4 ^c4 | d6 c2 | B2 A2 G4- | G2 FE F4 | %10
w: |Si|chia- ra e|pe- le-|gri-|na e la|_ mia|lu- *|||
 G4 z2 G2 | B3 c d2 G2 | G2 A2 B4 | c4 d4- | d2 d2 c2 c2 | B4 A4 | z2 ^G4 G2 | A4 B2 c2- | %18
w: ce, Che|vin- ce'l sol, Che|vin- ce'l sol|quan- do e-|* sce fuor de|l'on- de,|E se|ben quel s'a-|
 c2 A4 G2 | A8- | A4 A4 | B4 G4 | G2 A2 B2 c2 | d4 d2 c2 | B2 A2 G4- | G2 FE F4 | G8 | %27
w: * scon- de,|Tan-|* to|que- sta|ri- * * *|* lu- *|||ce,|
 z2 G2 B2 c2 | d4 d4 | GABABc d2- | d2 A2 z2 d2- | d2 B2 c2 d2- | d2 B2 A4 | B4 z2 B2 | B4 ^c4 | %35
w: Che mi fa|gior- no e-|ter- * * * * * *|* no, Che|_ mi fa gior-|* no e- ter-|no, Ne|qual di|
 d4 B4 | c4 A4- | A2 B4 ^c2 | d8- | d6 c2 | B4 A4 | z4 G4 | A4 B4 | G4 A4 | B4 d4 | d4 ^c4 | %46
w: lor sia'l|ver sol|_ il di-|scer-||* no,|Ne|qual di|lor sia'l|ver sol|il di-|
 d6 c2 | B2 A2 G4- | G2 FE F4 | G8 |] %50
w: scer- *|||no.|
V:2
 z8 |[K:G][K:treble] z8 | D8 | G6 G2 | G4 F4 | B,4 D4- | D4 E4 | F4 G4- | G2 F2 E2 DC | D8 | %10
w: ||Si|chia- ra e|pe- le-|gri- na e|_ la|mia lu-|||
 D4 D4 | B,2 G,2 D2 D2 | E2 F2 G4 | A4 =F4- | F2 =F2 F2 G2 | G4 F4 | z2 E4 E2 | E2 =F2 F2 E2- | %18
w: ce, Che|vin- ce'l sol, Che|vin- ce'l sol|quan- do e-|* sce fuor de|l'on- de,|E se|ben quel s'a- scon-|
 E2 D2 E4 | F8- | F4 F4 | G4 D4 | E2 F2 G2 E2 | =F4 D4- | D2 C2 B,4 | A,4 z2 D2 | B,2 C2 D4- | %27
w: * * de,|Tan-|* to|que- sta|ri- * * *|* lu-||ce, Che|mi fa gior-|
 D2 E2 G4 | F4 z2 =F2 | E2 G2 G3 G | G2 F2 z2 F2 | F2 E2 A2 F2 | G6 F2 | G4 z2 G2 | G4 E4 | %35
w: * no e- ter-|no, Che|mi fa gior- no e-|ter- no, Che|mi fa gior- no e-|ter- *|no, Ne|qual di|
 F2 F2 ^G4 | A4 E4 | F4 G4- | G2 F2 F2 EF | G8- | G4 F4 | z8 | D8 | E4 F4 | G4 D4 | A8- | A4 A4 | %47
w: lor sia'l ver|sol il|di- scer-|||* no,||Ne|qual di|lor sia'l|ver|_ sol|
 G4 D4 | D8 | D8 |] %50
w: il di-|scer-|no.|
V:3
 z8 |[K:G][K:treble-8] z8 | z8 | G8 | d6 d2 | d4 B4 | B4 A2 G2 | A4 B4 | B4 c4 | A8 | B2 G2 B2 c2 | %11
w: |||Si|chia- ra e|pe- le-|gri- * *|* na e|la mia|lu-|ce, Che vin- ce'l|
 d4 B4 | B2 d2 d4 | A4 _B4- | B2 _B2 A2 e2 | d6 d2 | z2 B4 B2 | ^c2 d4 G2 | A4 B4 | d8 | d4 d4- | %21
w: sol, Che|vin- ce'l sol|quan- do e-|* sce fuor de|l'on- de,|E se|ben quel s'a-|scon- de,|Tan-|to que-|
 d2 c2 B2 A2 | B4 G4 | A4 G2 A2 | B2 c2 d4- | d2 cB A4 | G4 z2 G2 | B2 c2 d4 | B4 A4 | %29
w: |* sta|ri- lu- *|||ce, Che|mi fa gior-|no e- ter-|
 B2 B2 B2 G2 | d4 A2 A2- | A2 B2 A4 | B2 d2 d2 A2 | e4 d4 | z2 e4 A2- | A2 A2 e4- | e2 e2 ^c4 | %37
w: no, Che mi fa|gior- no e- ter-|* no, Che|mi fa gior- no e-|ter- no,|Ne qual|_ di lor|_ sia'l ver|
 d4 B2 G2 | A4 A4 | z4 G4- | G4 A4 | B4 c4 | z4 B4 | B4 d4 | d4 B4 | e8 | d8 | d4 B4 | A8 | G8 |] %50
w: sol il di-|scer- no,|Ne|_ qual|di lor|Ne|qual di|lor sia'l|ver|sol|il di-|scer-|no.|
V:4
 z8 |[K:G] z8 | z8 | z8 | D,8 | G,6 G,2 | G,4 E,4 | D,4 B,,4 | E,4 E,4 | D,8 | G,,8 | z4 G,4 | %12
w: ||||Si|chia- ra e|pe- le-|gri- na e|la mia|lu-|ce,|Che|
 E,2 D,2 G,4 | =F,4 _B,,4- | B,,2 _B,,2 =F,2 C,2 | G,4 D,4 | z2 E,4 E,2 | A,2 D,4 E,2 | =F,4 E,4 | %19
w: vin- ce'l sol|quan- do e-|* sce fuor de|l'on- de,|E se|ben quel s'a-|scon- de,|
 D,8- | D,4 D,4 | G,6 F,2 | E,4 E,4 | D,4 G,,4- | G,,2 A,,2 B,,2 C,2 | D,8 | G,,8 | z4 G,,4 | %28
w: Tan-|* to|que- *|* sta|ri- lu-|||ce,|Che|
 B,,2 C,2 D,4 | E,4 G,4 | D,6 D,2 | F,2 G,2 A,2 D,2 | G,4 D,4 | z2 G,2 G,4 | E,4 A,4 | D,4 E,4 | %36
w: mi fa gior-|no e- ter-|no, Che|mi fa gior- no e-|ter- no,|Ne qual|di lor|sia'l ver|
 A,8 | D,4 E,4 | D,8 | G,,8 | z4 D,4- | D,4 E,4 | F,4 G,4 | E,4 D,4 | G,8 | A,8 | D,4 F,4 | G,8 | %48
w: sol|il di-|scer-|no,|Ne|_ qual|di lor|sia'l ver|sol|_|il di-|scer-|
 D,8 | G,,8 |] %50
w: |no.|

